X: 21
T: Song referring to an historical incident
N: Derived from ojibwa21.krn
C: Chippewa Songs ~ 1910
O: Red Wing, Minnesota, U.S.A
N: Chippewa Music by Frances Densmore, 1910
Z: transcribed to **kern format by Paul von Hippel and Daniel T. Shanahan
L: 1/8
M: 3/4
Q: 1/4=108
K: Gb clef=treble
%%linebreak <none>
B/ [I:setbarnb 1]| 
B< A G> B B/ G3/ | 
G4G3/ E/ | 
[M:4/4]G2G2G2G3/ B/ | 
[M:3/4](3:2:9B A A A G G G E E | 
D4D3/ B/ | 
[M:4/4]D2D2D2D3/ G/ | 
[M:3/4]G2D> E D3/ D/ | 
B,4B,3/ A,/ | 
G,4[K:clef=bass]G,3/ E,/ | 
G,4-G,3/ B,/ | 
[M:4/4]B,> A, G,> B, G,> E, G,3/ E,/ | 
[M:3/4]D,> D,D,4 | 
D,4D,2 |]  



